Newaita-dark/.DP/24/smartphonetrusted.svg

<svg xmlns="http://www.w3.org/2000/svg" xmlns:xlink="http://www.w3.org/1999/xlink" width="24px" height="24px" viewBox="0 0 24 24" version="1.1">
<g id="surface1">
<path style=" stroke:none;fill-rule:nonzero;fill:rgb(14.901961%,65.098041%,60.392159%);fill-opacity:1;" d="M 6.449219 3.164062 C 5.898438 3.164062 5.457031 3.609375 5.457031 4.15625 L 5.457031 20.03125 C 5.457031 20.582031 5.898438 21.023438 6.449219 21.023438 L 17.367188 21.023438 C 17.914062 21.023438 18.359375 20.582031 18.359375 20.03125 L 18.359375 4.15625 C 18.359375 3.609375 17.914062 3.164062 17.367188 3.164062 Z M 7.9375 5.148438 L 15.875 5.148438 C 16.152344 5.148438 16.375 5.371094 16.375 5.644531 L 16.375 17.054688 C 16.375 17.332031 16.152344 17.554688 15.875 17.554688 L 7.9375 17.554688 C 7.664062 17.554688 7.441406 17.332031 7.441406 17.054688 L 7.441406 5.644531 C 7.441406 5.371094 7.664062 5.148438 7.9375 5.148438 Z M 10.421875 18.546875 L 13.398438 18.546875 C 13.671875 18.546875 13.890625 18.765625 13.890625 19.039062 L 13.890625 19.539062 C 13.890625 19.8125 13.671875 20.03125 13.398438 20.03125 L 10.421875 20.03125 C 10.144531 20.03125 9.921875 19.8125 9.921875 19.539062 L 9.921875 19.039062 C 9.921875 18.765625 10.144531 18.546875 10.421875 18.546875 Z M 10.421875 18.546875 "/>
</g>
</svg>

<svg xmlns="http://www.w3.org/2000/svg" width="32" height="32" viewBox="0 0 24 24"><path d="M6.45 3.164a.989.989 0 0 0-.993.992v15.875c0 .551.441.996.992.996h10.914c.551 0 .992-.445.992-.996V4.156a.989.989 0 0 0-.992-.992zm1.487 1.984h7.938c.277 0 .496.223.496.497v11.41a.492.492 0 0 1-.496.496H7.937a.494.494 0 0 1-.496-.496V5.645c0-.274.223-.497.497-.497zm2.481 13.395h2.977c.277 0 .496.223.496.496v.496a.492.492 0 0 1-.496.496h-2.977a.494.494 0 0 1-.496-.496v-.496c0-.273.223-.496.496-.496zm0 0" fill="#26a69a"/></svg>
